X: 15
T: Rights Of Man, The
Z: jsdansereau93
S: https://thesession.org/tunes/83#setting46416
R: hornpipe
M: 4/4
L: 1/8
K: Emin
GA|:"Em"(3BcB (3ABA (3GAG (3FGF|EFGA B2ef|"G"gfed "D"edcB|"C"cBAG "Bm"F2 GA|
"Em"(3BcB (3ABA (3GAG (3FGF|EFGA B2ef|"G"gfed "D"Bg (3fgf|"Em"e2E2 E2 GA:|
"Em"BABG EFGA|BABG EGFE|"D"D2 DE F2 FG|AFDF A2 GF|
"Em"E2 EG "D"F2 FA|"C"GFGA "Bm"B2 ef|"G"gfed "D"Bg (3fgf|"Em"e2E2 E2 GA|
"Em"BABG EFGA|BABG EGFE|"D"D2 DE FEFG|ABAG F2 GF|
"Em"E2 EG "D"F2 FA|"C"GFGA "Bm"B2 ef|"G"gfed "D"Bg (3fgf|"Em"e2E2 E4||

